X:1
T:Title
%%score { ( 1 3 ) | 2 }
L:1/8
M:6/8
K:C
V:1 treble nm="Grand Piano"
V:3 treble 
V:2 bass 
V:1
 z3 z2[Q:1/4=81] [CE]/[DF]/ | [EG][EG][EG] [Ec][Ec][Ec] | [DB][Ec][Fd] [Ec]2 [Ec]/[EB]/ | AAA cFA | %4
 [EG]3- [EG]2 [CE]/[DF]/ | [EG][EG][EG] [Ec][Ec][Ec] | [DB][Ec][Fd] [Ec]2 [Ec]/[Ec]/ | %7
 [DB][Dc][Gd] [^Fd][Fc][FA] |[M:5/8] G-G- G3 |[M:1/8] E/[DF]/ |[M:3/4] G3 .c3 | A3 .c3 | %12
 B>B BB cd | [Ge]3 [Ec]2 [Ec] | B>B BB cd | [Ge]3 [Ec]2 [CE]/[DF]/ | G3 .c3 |[M:7/8] A3 c3 A | %18
[M:3/4] Ge cB AB |[M:5/8] [Ec]-[Ec]- [Ec]3 |] %20
V:2
 z3 z2 [C,G,]/[C,G,]/ | [C,C][C,C][C,C] [C,G,][C,G,][C,G,] | %2
 [G,,G,][G,,G,][G,,G,] [C,G,]2 [C,C]/[C,C]/ | [F,CF][F,CF][F,CF] [F,A,F][F,A,][F,CF] | %4
 [C,C]3- [C,C]2 [C,G,]/[C,G,]/ | [C,C][C,C][C,C] [C,G,][C,G,][C,G,] | %6
 [G,,G,][G,,G,][G,,G,] [C,G,]2 [C,G,]/[C,G,]/ | [D,G,][D,G,][D,B,] [D,A,][D,A,][D,C] | %8
[M:5/8] [G,B,]-[G,B,]- [G,B,]3 |[M:1/8] [C,G,C]/[C,G,]/ |[M:3/4] [C,C][C,C] [C,C][C,C] [C,C][C,C] | %11
 [F,CF][F,C] [F,C][F,A,F] [F,A,][K:treble][F,A,F] | [G,DF]>[G,DF] [G,DF][G,DF] [G,CF][G,B,F] | %13
 [C,C]3 [C,C]2 [C,C] | [G,DF]>[G,DF] [G,DF][G,DF] [G,CF][G,B,F] | [C,C]3 [C,C]2 [C,G,]/[C,G,]/ | %16
 [C,C][C,C] [C,C][C,C] [C,C][C,C] |[M:7/8] [F,CF]3 [^F,C_E]3 [F,CE] | %18
[M:3/4][K:treble] [G,CE][G,CE] [G,CE][G,DF] [G,DF][G,DF] |[M:5/8][K:bass] [C,C]-[C,C]- [C,C]3 |] %20
V:3
 x6 | x6 | x6 | x6 | x6 | x6 | x6 | x6 |[M:5/8] x5 |[M:1/8] x |[M:3/4] EE EE E[Ge] | z F .F2 Fc | %12
 x6 | x6 | x6 | x6 | EE EE E[Ge] |[M:7/8] x7 |[M:3/4] x6 |[M:5/8] x5 |] %20

